X: 2
T: The Pear Tree
R: hornpipe
M: 4/4
L: 1/8
K: Fmaj
F>Ac>B A>cf>a|g>be>g a>fc>B|A>fc>A G2 B>G|E>F (3GFE c>BA>G|
F>Ac>B A>cf>a|g>be>g a>fc>B|A>fc>A G>dB>G|G>FF>E F2:|
a>^ga>f c2 A>f|d>fc>f (3def c>f|a>^ga>f c>de>f|=g>^fg>a (3bc'b a>^g|
a>^ga>f c>fA>f|d>fc>f d>fc>B|d>ef>d e>f (3gfe|f2 c2 F2:|

